X: 115
T: No_201_"Little_Fish"_Dance.krn
N: Derived from No_201_"Little_Fish"_Dance.krn
%%abc-version 2.0
%%abcx-abcm2ps-target-version 5.9.1 (29 Sep 2008)
%%abc-creator hum2abc beta
%%abcx-conversion-date 2019/03/15 08:38:45
%%humdrum-veritas 1853502071
%%humdrum-veritas-data 3546475323
%%linebreak <none>
%%barnumbers 0
L: 1/8
M: 3/4
K: G clef=bass
[K:clef=bass][M:3/4]z4z A, | 
(3G,G,G, D,3/D,/ B,,3/D,/ | 
(3G,G,G, D,3/D,/ B,,3/A,/ | 
(3G,G,G, D,3/D,/ B,,3/D,/ ||  
[M:4/4](3G,G,G, D,3/D,/ B,,z2A, ||  
[M:3/4](3G,G,G, D,3/D,/ B,,/ z/ D, | 
(3G,G,G, D,3/D,/ B,,/ z/ G, ||  
[M:3/8]B,G,F, ||  
[M:7/8]G,D,B,,D,(D,G,/) z/ D, ||  
[M:3/8](G,3/F,/) z/ G,/ ||  
[M:7/8]G,D,B,,D,D,D,A, ||  
[M:3/4](3G,G,G, D,3/D,/ B,,3/D,/ | 
(3:2:7G,F,/ z/ (G, D,)D,D,B,,2 |]  



